svgs/solid/circle-caret-left.svg

<svg xmlns="http://www.w3.org/2000/svg" viewBox="0 0 512 512"><!-- Font Awesome Pro 6.0.0-alpha2 by @fontawesome - https://fontawesome.com License - https://fontawesome.com/license (Commercial License) --><path d="M256 16C123.451 16 16 123.453 16 256S123.451 496 256 496S496 388.547 496 256S388.549 16 256 16ZM304 360C304 369.531 298.344 378.188 289.594 382C286.5 383.344 283.25 384 280 384C274.062 384 268.203 381.781 263.672 377.594L151.672 273.594C146.781 269.031 144 262.688 144 256S146.781 242.969 151.672 238.406L263.672 134.406C270.703 127.938 280.891 126.25 289.594 130C298.344 133.812 304 142.469 304 152V360Z"/></svg>

<svg xmlns="http://www.w3.org/2000/svg" viewBox="0 0 512 512"><!--! Font Awesome Pro 6.3.0 by @fontawesome - https://fontawesome.com License - https://fontawesome.com/license (Commercial License) Copyright 2023 Fonticons, Inc. --><path d="M512 256A256 256 0 1 0 0 256a256 256 0 1 0 512 0zm-368 0c0-6.7 2.8-13 7.7-17.6l112-104c7-6.5 17.2-8.2 25.9-4.4s14.4 12.5 14.4 22l0 208c0 9.5-5.7 18.2-14.4 22s-18.9 2.1-25.9-4.4l-112-104c-4.9-4.5-7.7-10.9-7.7-17.6z"/></svg>
